X:069
T:Harper's Frolic
M:4/4
L:1/8
K:D
AG | F2 AG D2 AG | F2 AG D2 dd | c2 d2 e2 c2 | dcde f2 AG | 
F2 AG D2 AG | F2 AG D2 dd | c2 d2 e2 c2 | d4 d2 :| 
e2 | f4 de f2 | g2 g2 eg e2 | f4 de f2 | edcB A2 de | 
f2 f2 de f2 | g2 g2 eg e2 | fedf e2 c2 | d4 d2 :| 

